src/assets/img/providers/ezugi-g.svg

<svg width="74" height="28" viewBox="0 0 74 28" fill="none" xmlns="http://www.w3.org/2000/svg">
<path fill-rule="evenodd" clip-rule="evenodd" d="M72.5945 5.79772C72.0766 6.15022 71.4661 6.3416 70.8397 6.34778C69.9969 6.34181 69.1898 6.00647 68.5909 5.4134C67.9919 4.82033 67.6487 4.01655 67.6345 3.1738C67.6345 2.54739 67.8199 1.93501 68.1673 1.41375C68.5146 0.892495 69.0085 0.485724 69.5867 0.244601C70.1648 0.00347838 70.8014 -0.0612271 71.4162 0.0587263C72.031 0.17868 72.5966 0.477879 73.0417 0.918642C73.4868 1.3594 73.7916 1.92206 73.9175 2.53567C74.0435 3.14929 73.9851 3.78643 73.7497 4.36692C73.5143 4.9474 73.1123 5.44523 72.5945 5.79772ZM67.3653 21.8991H62.7062V7.95082H67.3653V21.8991ZM50.6487 14.3312C50.6487 15.8841 51.496 17.1831 53.1052 17.1831C53.5828 17.1744 54.0539 17.0706 54.4905 16.8766C54.9271 16.6826 55.3204 16.4029 55.647 16.0542V12.6936C55.3192 12.3484 54.9251 12.0729 54.4883 11.8837C54.0516 11.6944 53.5812 11.5952 53.1052 11.592C51.496 11.592 50.6487 12.8341 50.6487 14.3312ZM60.3055 21.4479C60.3055 25.5704 57.9902 27.999 53.0483 27.999V28.0001C50.9631 27.9765 48.9198 27.4122 47.118 26.3625V21.8445C48.7749 23.0183 50.737 23.6854 52.766 23.7649C54.7707 23.7649 55.6464 22.974 55.6464 21.4491V20.0367C54.6598 20.8255 53.4384 21.2628 52.1754 21.2794C48.3635 21.2794 45.8502 18.3729 45.8502 14.3329C45.8502 10.3509 48.363 7.49906 52.1754 7.49906C53.4474 7.46232 54.6865 7.90578 55.6464 8.74121V7.95082H60.3055V21.4479ZM37.5391 21.9994C36.8939 22.2517 36.2047 22.3718 35.5123 22.3527C34.8438 22.375 34.1778 22.2593 33.556 22.0127C32.9341 21.7662 32.3698 21.3941 31.8982 20.9198C31.4265 20.4454 31.0578 19.879 30.8148 19.2557C30.5719 18.6325 30.46 17.9659 30.4862 17.2975V7.95082H35.1453V16.1401C35.1222 16.3982 35.1546 16.6583 35.2404 16.9029C35.3261 17.1475 35.4632 17.3709 35.6424 17.5581C35.8216 17.7454 36.0388 17.8921 36.2794 17.9885C36.5199 18.0849 36.7784 18.1286 37.0373 18.1169C37.4736 18.1029 37.8998 17.9824 38.2788 17.7657C38.6578 17.5491 38.978 17.243 39.2115 16.8741V7.95082H43.8706V21.9008H39.2678V20.884C38.7721 21.3678 38.1842 21.7471 37.5391 21.9994ZM28.3683 21.9008H15.4914L15.4926 18.0884L21.9879 11.7632H15.6058V7.95082H28.2283V11.6785L21.7336 18.0036H28.3683V21.9008ZM13.7981 21.9008H0.0176086L0.018173 2.13376H13.7969V6.51064H4.81726V9.81492H12.9218V14.1918H4.81726V17.3829H13.7981V21.9008Z" fill="#00AB55"/>
</svg>

<svg xmlns="http://www.w3.org/2000/svg" width="74" height="28" fill="none"><path fill="#00AB55" fill-rule="evenodd" d="M72.594 5.798a3.174 3.174 0 0 1-1.754.55 3.228 3.228 0 0 1-3.206-3.174 3.174 3.174 0 1 1 4.96 2.624Zm-5.229 16.101h-4.659V7.951h4.66v13.948ZM50.65 14.331c0 1.553.847 2.852 2.456 2.852a3.571 3.571 0 0 0 2.542-1.129v-3.36a3.536 3.536 0 0 0-2.542-1.102c-1.609 0-2.456 1.242-2.456 2.74Zm9.657 7.117c0 4.122-2.316 6.551-7.258 6.551V28a12.052 12.052 0 0 1-5.93-1.637v-4.518a10.48 10.48 0 0 0 5.648 1.92c2.005 0 2.88-.791 2.88-2.316v-1.412a5.678 5.678 0 0 1-3.47 1.242c-3.813 0-6.326-2.906-6.326-6.946 0-3.982 2.513-6.834 6.325-6.834a5.064 5.064 0 0 1 3.471 1.242v-.79h4.66v13.497Zm-22.767.551a5.173 5.173 0 0 1-2.027.354 4.867 4.867 0 0 1-5.026-5.056V7.951h4.66v8.19a1.816 1.816 0 0 0 1.891 1.976 2.674 2.674 0 0 0 2.175-1.243V7.951h4.659V21.9h-4.603v-1.017a5.172 5.172 0 0 1-1.729 1.115Zm-9.17-.098H15.49l.002-3.813 6.495-6.325h-6.382V7.951h12.622v3.728l-6.494 6.325h6.634V21.9Zm-14.57 0H.017V2.134h13.779V6.51h-8.98v3.304h8.105v4.377H4.817v3.19h8.981v4.519Z" clip-rule="evenodd"/></svg>
